X:1
T:The Iron Throne
T:The Iron Throne
T:Ramin Djawadi Arr. Kaleb Norton 
C:Ramin Djawadi
%%score { ( 1 4 ) | ( 2 3 ) }
L:1/8
Q:1/4=60
M:4/4
K:Eb
V:1 treble nm="Piano" snm="Pno."
V:4 treble 
V:2 bass 
V:3 bass 
V:1
!p!!ped! g4!ped! c'4 | g8 | e4 f4- | f4 g4- | g8 | g4 c'4 | g8 | c'8 | d'8 |[M:3/4] [Ce']6- | %10
 [C-e']6 | C6 | =B,6- | B,6 | =A,6- | A,6 | A,6- | A,6- | A,6 |!<(! z4 E2 | F6- | F6- | F6- | F6- | %24
 F4 [Cc]2!<)! |!mp! [Ee]4 [Dd]2 | [Ee]4 [=B,=B]2 | [Cc]4 [Cc]2 | [Ff]4 [=E=e]2 | %29
"_dim." [Ff]4 =B,2!ped-up! |[M:3/4]!p!!<(!!ped! C!ped! C,3 z z!ped-up! | %31
[M:4/4] C C,4 C,F,E,!<)!!ped-up! |[M:3/4]!mp!!ped! [Ff]6!ped! | x2!ped-up! [Ff]/[Bb]/[Aa]- [Aa]4 | %34
 [Ff][Aa] [Gg]4 | [=E=e]6 |!<(! [=E=e][Aa] [Gg]4 | [Ff]4 [Gg]2!ped-up!!<)! | %38
[M:5/4]!f!!ped! [cc']4!ped! [Gg]4!ped-up! [Aa][Bb] | [cc']4 [Ee]4 [Aa][Bb] | [Gg]4 [Cc]4 [Ee][Ff] | %41
[M:4/4] [Gg]6 A,B,!ped-up! |[M:3/4]!ped! [Cc]2!ped! [G,G]2 [A,A][B,B] | x2!ped-up! %43
 [Cc]2 [E,E]2 [A,A][Cc] | [Dd]2 [G,G]2 [Cc][Dd] |[M:4/4] [Ee]2 [Cc]4 [G,G][B,B]!ped-up! | %46
!ped! [Cc]2!ped! [E,E]4 [A,A][B,B]!ped-up! |[M:3/4] [Cc]2 [B,B]2 [A,A][B,B] | %48
 [G,G]2 [C,C]2 [E,E][F,F] |!<(! D4 =B,2!ped-up!!<)! | %50
[K:bass]!ff!!ped! C,!ped!!p!G,,"_cresc." A,,/B,,/C, G,,A,,/B,,/!ped-up! | %51
 C,G,, A,,/B,,/C, G,,A,,/B,,/ | C,D, C,/D,/E, F,E,/F,/!ped-up! | %53
!ped! G,!ped!C, E,/F,/G, C,E,/F,/!ped-up! | G,C, E,/F,/G, C,E,/F,/ | %55
 G,A, G,/A,/B, =B,_B,/=B,/!ped-up! | %56
[K:treble]!mp!"_cresc."!ped! C!ped!G, A,/B,/C G,A,/B,/!ped-up! | CG, A,/B,/C G,A,/B,/ | %58
 CD C/D/E F[EA]/[FB]/!ped-up! |!mf!!ped! G!ped!C E/F/G CE/F/!ped-up! | %60
!ped! G!ped!C E/F/G CE/F/!ped-up! |!ped! G!ped!C E/F/G CE/F/!ped-up! | %62
!ped! G!ped!C E/F/G CE/F/!ped-up! |!ped! G!ped!C E/F/G CE/F/!ped-up! | %64
!ped!!<(! G!ped!C E/F/G CE/F/!ped-up!!<)!!ped-up! |!f! [CE]6 | [=B,^F]6 | [CG]6 | [=B,A]6 | %69
[M:4/4]!<(! [Cc]4 [=B,=B]4 |[M:5/4] [F,c]4!<)! [A,d]6 |[M:4/4]!ff![Q:1/4=56] [EGeg]4 [DFdf]4 | %72
[M:3/4] [Ee]6 |[M:4/4] [DFd]8 |!p!!ped! G4!ped! A4!ped-up! |[M:6/4] G4 A8!ped-up! | %76
[Q:1/4=58]!ped! E6-!ped! E4 D2!ped-up! |!ped! E6-!ped! E4 C2!ped-up! | %78
!ped! E6-!ped! E2 D4!ped-up! |!ped! E6-!ped! E4 =B,2!ped-up! |!ped! C6!ped! C2 D4!ped-up! | %81
!ped! D2!ped! E2 EF A6!ped-up! |[M:3/4]!ped! [=B,=B=b]6!ped!!ped-up! | x6!ped-up! %83
!ped! c'2!ped! g2 ab!ped-up! | c'2 g4 | c'2 g2 a2 | b6 | c'6- | !fermata!c'6!ped-up! |] %89
V:2
 z8 | z8 | z8 | z8 | z8 | z8 | z8 | z8 | z8 |[M:3/4] z6 | z3 C,3 | E,6- | E,4 D,2 | E,6- | %14
 E,4 C,2 | E,6- | E,4 D,2 | E,6- | E,4 C,2 |!<(! F,4 E,2 | F,4 D,2 | G,4 ^F,2 | G,4 G,2 | C4 =B,2 | %24
 C6!<)! |!mp! [B,,F,]6- | [B,,F,]6 | [C,F,]6 | [A,,E,]6- |"_dim." [A,,E,]6 | %30
[M:3/4]!p!!<(! [C,,G,,C,]6 |[M:4/4] [B,,,F,,B,,]6- [B,,,F,,B,,][B,,,B,,]!<)! | %32
[M:3/4]!mp! [A,,,E,,A,,]6 | [A,,,E,,A,,]6 | [B,,,F,,B,,]6- | [B,,,F,,B,,]6 | %36
!<(! !////-!B,,,3 B,,3 | !////-!B,,,3 B,,3!<)! |[M:5/4]!f! [A,,E,A,]6 A,,2 [A,,E,A,]2 | %39
 [F,,C,F,]6 F,,2 [F,,C,F,]2 | [E,,B,,E,]6 E,,2 [E,,B,,E,]2 |[M:4/4] [D,,=A,,D,]6 [D,,A,,D,]2 | %42
[M:3/4] [C,,G,,C,]4 [C,,G,,C,]2 | [A,,,E,,A,,]4 [A,,,E,,A,,]2 | [B,,,F,,B,,]4 [B,,,F,,B,,]2 | %45
[M:4/4] [C,,G,,C,]4 C,,2 [C,,G,,C,]2 | [A,,,E,,A,,]4 A,,,2 [A,,,E,,A,,]2 | %47
[M:3/4] [F,,,F,,C,]4 [F,,,F,,C,]2 | [E,,,E,,B,,]4 [E,,,E,,B,,]2 | %49
!<(! [G,,,G,,D,]4 [G,,,G,,D,]2!<)! |!ff! [C,,G,,]!p!C,,"_cresc." C,,C,, C,,C,, | %51
 C,,C,, C,,C,, C,,C,, | C,,C,, C,,C,, C,,C,, | D,,D,, D,,D,, D,,D,, | D,,D,, D,,D,, D,,D,, | %55
 D,,D,, D,,D,, D,,D,, |!mp!"_cresc." C,,C,, C,,C,, C,,C,, | C,,C,, C,,C,, C,,C,, | %58
 C,,C,, C,,C,, C,,C,, |!mf! A,,A,, A,,A,, A,,A,, | B,,B,, B,,B,, B,,B,, | =B,,B,, B,,B,, B,,B,, | %62
 C,C, C,C, C,C, | D,D, D,D, D,D, |!<(! E,E, [E,,E,][E,,E,] [D,,E,][_C,,E,]!<)! | %65
!f! [C,,,C,,G,,C,C]6 | [=B,,,,=B,,,^F,,=B,,=B,]6 | [C,,,C,,G,,C,C]6 | [=B,,,,=B,,,^F,,=B,,=B,]6 | %69
[M:4/4]!<(! [C,,,C,,G,,C,C]4 [=B,,,,=B,,,^F,,=B,]4 |[M:5/4] [F,,,F,,C,F,]4!<)! [A,,,A,,E,A,]6 | %71
[M:4/4]!ff! [C,,C,E,G,]4 [B,,,B,,D,F,]4 |[M:3/4] [A,,,A,,E,]6 |[M:4/4] [G,,,G,,D,F,]8 | %74
!p! E,,4 D,,4 |[M:6/4] E,,4 F,,8 | [C,,C,]6 [B,,,B,,]6 | [F,,,F,,]6 [A,,,A,,]6 | %78
 [C,,C,]6 [B,,,B,,]6 | [F,,,F,,]6 [A,,,A,,]6 | [C,,C,G,]6 [B,,,B,,F,]6 | %81
 [F,,,F,,F,]6 [A,,,A,,A,]6 |[M:3/4] [A,,E,A,]6 | C,6- | C,6- | C,6- | C,6- | C,6- | C,6 |] %89
V:3
 x8 | x8 | x8 | x8 | x8 | x8 | x8 | x8 | x8 |[M:3/4] C,,6- | C,,6- | C,,6 | =B,,,6- | B,,,6 | %14
 =A,,,6- | A,,,6 | A,,,6- | A,,,6- | A,,,6 | [F,,,F,,C,]6- | [F,,,F,,C,]6 | [G,,,G,,D,]6- | %22
 [G,,,G,,D,]6 | [A,,,A,,E,]6- | [A,,,A,,E,]6 | B,,,6- | B,,,6 | C,,6 | A,,,6- | A,,,6 |[M:3/4] x6 | %31
[M:4/4] x8 |[M:3/4] x6 | x6 | x6 | x6 | x6 | x6 |[M:5/4] x10 | x10 | x10 |[M:4/4] x8 |[M:3/4] x6 | %43
 x6 | x6 |[M:4/4] x8 | x8 |[M:3/4] x6 | x6 | x6 | C,,,6- | C,,,6 | x6 | D,,,6- | D,,,6 | x6 | %56
 C,,,6- | C,,,6 | x6 | A,,,6 | B,,,6 | =B,,,6 | C,,6 | D,,6 | E,,2 x4 | x6 | x6 | x6 | x6 | %69
[M:4/4] x8 |[M:5/4] x10 |[M:4/4] x8 |[M:3/4] x6 |[M:4/4] x8 | x8 |[M:6/4] x12 | x12 | x12 | x12 | %79
 x12 | x12 | x12 |[M:3/4] x6 | x6 | x6 | x6 | x6 | x6 | x6 |] %89
V:4
 x8 | x8 | x8 | x8 | x8 | x8 | x8 | x8 | x8 |[M:3/4] x6 | x6 | x6 | x6 | z2 e'4- | e'2 d'4- | %15
 d'6- | d'2 c'4- | c'6- | c'6 | x6 | x6 | x6 | x6 | x6 | x6 | x6 | x6 | x6 | x6 | x6 | %30
[M:3/4] z2 E,F, =Bc |[M:4/4] z2 F,B, =B c3 |[M:3/4] x6 | x6 | x6 | x6 | x6 | x6 |[M:5/4] x10 | %39
 x10 | x10 |[M:4/4] D4 G,4 |[M:3/4] x6 | x6 | x6 |[M:4/4] x8 | x8 |[M:3/4] x6 | x6 | x6 | %50
[K:bass] x6 | x6 | x6 | x6 | x6 | x6 |[K:treble] x6 | x6 | x6 | cG A/B/c GA/B/ | %60
 c/c/G/G/ A/B/c/c/ G/G/A/B/ | c/c/G/G/ A/B/c/c/ G/G/A/B/ | c/c/G/G/ A/B/c/c/ G/G/B/c/ | %63
 d/d/G/G/ B/c/d/d/ G/G/c/d/ | e/e/G/G/ c/d/e/e/ G/G/c/d/ | x6 | x6 | x6 | x6 |[M:4/4] x8 | %70
[M:5/4] x10 |[M:4/4] x8 |[M:3/4] x6 |[M:4/4] x8 | x8 |[M:6/4] z8 z2 C2 | C2 G,2 A,B, C2 G,4 | %77
 C2 G,2 A,B, C6 | [Cc]2 [G,G]2 [A,A][B,B] [Cc]2 [Dd]4 | [Ee]2 [G,G]2 [Cc][Dd] [Ee]4 [=B=b]2 | %80
 [cc']2 [Gg]2 [Aa][Bb] [cc']2 [dd']2 [ff']2 | [ee']2 [cc']2 [ee'][ff'] [aa']6 |[M:3/4] x6 | %83
 [CGc]6- | [CGc]6- | [CGc]6- | [CGc]6- | [CGc]6- | [CGc]6 |] %89

